X: 141
T: Up and Ware them a' Willie
R: reel
M: C
L: 1/8
Z: 2012 John Chambers <jc:trillian.mit.edu>
B: J. Anderson "Budget of Strathspeys, Reels and Country Dances" (Early 1800s) p.14 #1
F: http://imslp.org/wiki/Anderson%27s_Budget_of_Strathspeys,_Reels_and_Country_Dances_(Various)
K: G
B | G/G/G (BG) c2(ce) | G/G/G (BG) A2(AB) | GABG cd.e.g | dcBA G2G :|
d | gedB c2(ce) | gedB A2(Ae) | gedB cdeg | dcBA G2(G ||
d)| (ge).d.B (cd).e.f | gddB A2(Ae) | (gd).e.B (cd).e.g | dcBA G2G |]

%%sep 2 1 500
%%sep 1 1 500

